!! 00007] TT[TB
!! Eigene Aufnahme
!!!OTL: Fengyang huagu (1)
!!!ARE: Asia, China,Anhui, Fengyang
!! Ethnic Group: Han
!! III, 558
!!!SCT: C0172
!!!YEM: Copyright 1995, estate of Helmut Schaffrath.
**kern
*ICvox
*Ivox
*M4/4
*k[f#]
*G:
{4ee
8ee
8dd
2b
=1
4ee
8ee
8dd
2b}
=2
{4.b
8dd
4ee
4gg
=3
8ee
8dd
8b
8g
2a}
=4
{4.g
8a
4b
4dd
=5
4b
8a
8g
2a}
=6
{4ee
8ee
8dd
8b
8dd
8ee
8gg
=7
8ee
8dd
4b
2a}
=8
{4.ee
8dd
4ee
4gg
=9
4aa
8gg
8ee
2dd}
=10
{4.ee
8dd
4b
4gg
=11
4ee
8dd
8b
2a}
=12
{4.g
8a
4b
4dd
=13
4b
8a
8g
2a}
=14
{4ee
8ee
8dd
8b
8dd
8ee
8gg
=15
8ee
8dd
4b
2a}
==
!!!AGN: Xiaodiao, Blumentrommel, Hua gu
!! Nicht nur Volkslied. Es wird in verschiedenen Lokalopern gesungen
!!    mit einer Trommel begleitet. Bisweilen singen Eheleute das Lied.
!!    Das Instrument kann durch Fuellwoerter ersetzt werden.
!!    Diesen Liedtyp gibt es schon seit der Ming-Dynastie, vielleicht
!!    auch schon frueher. Aus dieser Gegend wanderten viele Menschen
!!    aus, einige soweit wie Indonesien. Saengerin erkaeltet.
!!    Saengerin: Huang Bai
!!    Vor- und Zwischenspiele weggelassen.
!!!ONB: ESAC (Essen Associative Code) Database: CHINA_041
!!!AMT: simple quadruple
!!!AIN: vox
!!!EED: Helmut Schaffrath
!!!EEV: 1.0
*-
